X:1
T:Il est n\'e, le divin enfant
R:Christmas
O:French Canadian
M:4/4
L:1/4
Q:100
Z:R. Stein, Dec. 24, 2007
K:G
D G G B/G/ | D G G2 | G G/A/ B c/B/ |1 A G A/F/ D :|2 A d G2 ||
B c d c/B/ | c e d2 | B c    d e/d/ |1 c B B    A :|2 c B A2 ||
